X:1
T:Rambleaway
M:6/8
L:1/8
K:D
A/2-G/2| FED B,ED| CB,C D2 A/2A/2| FED B,E-D| CB,C D2 A| Bcd cBA| Bcd c2 A|\
 BBB BdB| AFD E3| FEF G2 B| AGF FEF| A,B,C D2||
